X:1
T:La verginella
T:Paulo Bellasio
T:Source : Canzonette a quattro voci---Roma---S.Verovio---1592. Editor : André Vierendeels (16/08/17).
T:Notes Original clefs : C1, C3, C4, F4 Editorial accidentals above the staff
T:La verginella
T:©
T:©
C:Paulo Bellasio
Z:©
%%score [ 1 2 3 4 ]
L:1/8
Q:1/4=120
M:4/4
K:C
V:1 treble nm="Soprano" snm="S"
V:2 treble nm="Alto" snm="A"
V:3 treble-8 nm="Tenor" snm="T"
V:4 bass nm="Bass" snm="B"
V:1
 B8 | B2 GA Bcde | c2 AB cdec | B2 B2 GABc | d2 DE FGAB | ^c2 d3 c cB/c/ | !fermata!d8 | A4 A2 A2 | %8
w: La|Ver- gi- * * * * *|nel- la'è _ _ _ _ _|si- mil al _ _ _|_ la _ _ _ _ _|_ ro- * * * *|sa,|chin bel giar-|
 A2 A2 AGAB | A2 d2 cded | cBAG ^F2 G2- | G2 ^F2 !fermata!G4 :| %12
w: din su la _ _ _|_ na- ti- * * *|* * * * * va|_ spi- na.|
V:2
 G8 | G4 G4 | F4 E4 | G4 D4 | D4 D4 | G8 | !fermata!^F8 |"^-natural" F4 F2 F2 | F2 F2 F4- | %9
w: La|Ver- gi-|nel- la'è|si- mil|al- la|ro-|sa,|chin bel giar-|din su la|
 F2 G2 G4- | G2 E2 D4- | D4 !fermata!D4 :| %12
w: _ na- ti-|* va spi-|* na.|
V:3
 d8 | d6 B2 | c4 c4 | d4 B4 | B4 A4 | G8 | !fermata!A8 | d4 d2 d2 | d2 d2 d4- | d2 d2 edcd | %10
w: La|Ver- gi-|nel- la'è|si- mil|al- la|ro-|sa,|chin bel giar-|din su la|_ na- ti- * * *|
 edcB A2 B2 | A4 !fermata!B4 :| %12
w: * * * * * va|spi- na.|
V:4
 G,8 | G,4 G,4 | A,4 A,4 | G,6 G,2 | G,4 F,4 | E,8 | !fermata!D,8 | D,4 D,2 D,2 | D,2 D,2 D,4- | %9
w: La|Ver- gi-|nel- la'è|si- mil|al- la|ro-|sa,|chin bel giar-|din su la|
 D,2 B,,2 C,4 | C,4 D,4- | D,4 !fermata!G,,4 :| %12
w: _ na- ti-|va spi-|* na.|

